assets/sonr-icons/android.svg

<svg xmlns="http://www.w3.org/2000/svg" width="24" height="24" fill="none" viewBox="0 0 24 24"><path fill="#000" d="M4 9.00004C3.448 9.00004 3 9.44804 3 10V14C3 14.552 3.448 15 4 15C4.552 15 5 14.552 5 14V10C5 9.44804 4.552 9.00004 4 9.00004ZM20 9.00004C19.448 9.00004 19 9.44804 19 10V14C19 14.552 19.448 15 20 15C20.552 15 21 14.552 21 14V10C21 9.44804 20.552 9.00004 20 9.00004ZM7 16V11.5C7 11.224 7.223 11 7.5 11H16.5C16.776 11 17 11.224 17 11.5V16C17 17.105 16.105 18 15 18V20C15 20.552 14.552 21 14 21C13.448 21 13 20.552 13 20V18H11V20C11 20.552 10.552 21 10 21C9.448 21 9 20.552 9 20V18C7.895 18 7 17.105 7 16ZM9.895 3.55304C9.648 3.05904 9.047 2.85804 8.553 3.10604C8.059 3.35404 7.858 3.95304 8.106 4.44804L8.566 5.36804C7.715 6.17204 7.148 7.27104 7.026 8.50204C6.999 8.77604 7.225 9.00104 7.502 9.00104H16.502C16.778 9.00104 17.005 8.77704 16.978 8.50204C16.856 7.27104 16.288 6.17204 15.437 5.36804L15.897 4.44804C16.144 3.95404 15.944 3.35304 15.45 3.10604C14.956 2.85904 14.355 3.06004 14.108 3.55304L13.731 4.30704C13.193 4.10804 12.61 4.00004 12.002 4.00004C11.394 4.00004 10.812 4.10804 10.273 4.30704L9.895 3.55304Z"/></svg>

<svg xmlns="http://www.w3.org/2000/svg" width="24" height="24" fill="none"><path fill="currentColor" d="M4 9a1 1 0 0 0-1 1v4a1 1 0 0 0 2 0v-4a1 1 0 0 0-1-1m16 0a1 1 0 0 0-1 1v4a1 1 0 0 0 2 0v-4a1 1 0 0 0-1-1M7 16v-4.5a.5.5 0 0 1 .5-.5h9a.5.5 0 0 1 .5.5V16a2 2 0 0 1-2 2v2a1 1 0 0 1-2 0v-2h-2v2a1 1 0 0 1-2 0v-2a2 2 0 0 1-2-2M9.895 3.553a1 1 0 1 0-1.789.895l.46.92a4.98 4.98 0 0 0-1.54 3.134c-.027.274.199.499.476.499h9c.276 0 .503-.224.476-.499a4.98 4.98 0 0 0-1.541-3.134l.46-.92a1 1 0 0 0-1.789-.895l-.377.754A5 5 0 0 0 12.002 4a5 5 0 0 0-1.729.307z"/></svg>
